svg/heart-dislike-circle-sharp.svg

<?xml version="1.0" encoding="UTF-8" standalone="no"?>
<svg
   xmlns:dc="http://purl.org/dc/elements/1.1/"
   xmlns:cc="http://creativecommons.org/ns#"
   xmlns:rdf="http://www.w3.org/1999/02/22-rdf-syntax-ns#"
   xmlns:svg="http://www.w3.org/2000/svg"
   xmlns="http://www.w3.org/2000/svg"
   xmlns:sodipodi="http://sodipodi.sourceforge.net/DTD/sodipodi-0.dtd"
   xmlns:inkscape="http://www.inkscape.org/namespaces/inkscape"
   class="ionicon"
   viewBox="0 0 512 512"
   version="1.1"
   id="svg6"
   sodipodi:docname="heart-dislike-circle-sharp.svg"
   inkscape:version="1.0.2 (e86c8708, 2021-01-15)">
  <metadata
     id="metadata12">
    <rdf:RDF>
      <cc:Work
         rdf:about="">
        <dc:format>image/svg+xml</dc:format>
        <dc:type
           rdf:resource="http://purl.org/dc/dcmitype/StillImage" />
      </cc:Work>
    </rdf:RDF>
  </metadata>
  <defs
     id="defs10" />
  <sodipodi:namedview
     pagecolor="#ffffff"
     bordercolor="#666666"
     borderopacity="1"
     objecttolerance="10"
     gridtolerance="10"
     guidetolerance="10"
     inkscape:pageopacity="0"
     inkscape:pageshadow="2"
     inkscape:window-width="689"
     inkscape:window-height="480"
     id="namedview8"
     showgrid="false"
     inkscape:zoom="1.3027344"
     inkscape:cx="256"
     inkscape:cy="256"
     inkscape:window-x="44"
     inkscape:window-y="25"
     inkscape:window-maximized="0"
     inkscape:current-layer="svg6" />
  <title
     id="title2">Heart Dislike Circle</title>
  <path
     style="color:#000000;font-style:normal;font-variant:normal;font-weight:normal;font-stretch:normal;font-size:medium;line-height:normal;font-family:sans-serif;font-variant-ligatures:normal;font-variant-position:normal;font-variant-caps:normal;font-variant-numeric:normal;font-variant-alternates:normal;font-variant-east-asian:normal;font-feature-settings:normal;font-variation-settings:normal;text-indent:0;text-align:start;text-decoration:none;text-decoration-line:none;text-decoration-style:solid;text-decoration-color:#000000;letter-spacing:normal;word-spacing:normal;text-transform:none;writing-mode:lr-tb;direction:ltr;text-orientation:mixed;dominant-baseline:auto;baseline-shift:baseline;text-anchor:start;white-space:normal;shape-padding:0;shape-margin:0;inline-size:0;clip-rule:nonzero;display:inline;overflow:visible;visibility:visible;isolation:auto;mix-blend-mode:normal;color-interpolation:sRGB;color-interpolation-filters:linearRGB;solid-color:#000000;solid-opacity:1;vector-effect:none;fill:#000000;fill-opacity:1;fill-rule:nonzero;stroke-width:1;stroke-linecap:butt;stroke-linejoin:miter;stroke-miterlimit:4;stroke-dasharray:none;stroke-dashoffset:0;stroke-opacity:1;color-rendering:auto;image-rendering:auto;shape-rendering:auto;text-rendering:auto;enable-background:accumulate;stop-color:#000000;stop-opacity:1;stroke:none;opacity:1"
     d="M 256,48 C 141.31,48 48,141.31 48,256 48,370.69 141.31,464 256,464 370.69,464 464,370.69 464,256 464,141.31 370.69,48 256,48 Z m 63.73,310.36 -183.14,-182.3 22.74,-22.51 183.19,182.36 z m -63.51,4.86 c -35.36,-25 -66.31,-51.92 -74.91,-62.4 -20,-24.37 -29.58,-49.4 -29.3,-76.5 0.0335,-3.12109 0.31778,-6.23444 0.85,-9.31 l 130.21,129.4 c -3.43,2.59 -16.21,11.45 -26.85,18.81 z m 74.47,-62.4 -0.31,0.38 L 197.33,169 c 3.36371,-0.6578 6.78258,-0.99265 10.21,-1 16.78346,-0.0577 32.80641,6.99458 44.1,19.41 l 4.36,4.59 4.36,-4.6 c 11.29538,-12.41172 27.31808,-19.46026 44.1,-19.4 30.31,0 55.22,25.27 55.53,56.33 0.28,27.09 -9.31,52.12 -29.3,76.49 z"
     id="path4" />
</svg>

<svg xmlns="http://www.w3.org/2000/svg" width="512" height="512" viewBox="0 0 512 512"><title>ionicons-v5-f</title><path d="M256,48C141.31,48,48,141.31,48,256s93.31,208,208,208,208-93.31,208-208S370.69,48,256,48Zm63.73,310.36L136.59,176.06l22.74-22.51L342.52,335.91Zm-63.51,4.86c-35.36-25-66.31-51.92-74.91-62.4-20-24.37-29.58-49.4-29.3-76.5a58.27,58.27,0,0,1,.85-9.31l130.21,129.4C279.64,347,266.86,355.86,256.22,363.22Zm74.47-62.4-.31.38L197.33,169a53.8,53.8,0,0,1,10.21-1,59.34,59.34,0,0,1,44.1,19.41L256,192l4.36-4.6A59.34,59.34,0,0,1,304.46,168c30.31,0,55.22,25.27,55.53,56.33C360.27,251.42,350.68,276.45,330.69,300.82Z"/></svg>
